X: 11253
T: BONNIE MARY
Q: "Slow and expressive."
%R: air
B: W. Hamilton "Universal Tune-Book" Vol. 1 Glasgow 1844 p.125 #3
S: http://imslp.org/wiki/Hamilton's_Universal_Tune-Book_(Various)
Z: 2016 John Chambers <jc:trillian.mit.edu>
M: C
L: 1/8
K: C
%%slurgraces yes
%%graceslurs yes
% - - - - - - - - - - - - - - - - - - - - - - - - -
C |\
C2 (E>F) G2 (AB) | (cB) (AG) {F}E3 E |\
D2 (E>G) {G}c3 d | (ed) (cB) A2 GE |\
C2 (E>F) G2 (AB) | (cB) (AG) E3 G |\
e3 d (c>A) GE | D2 E>G A2 G |]
G |\
c2 (c/d/)(e/d/) {d}c3 A | (GA) (cG) {F}E3 E |\
D2 E>G c3 d | (ed) (cB) A2 GG |\
c2 (cd/e/) A2 (AB/c/) | G2 (f>e) {e}d3 B |\
c3 B (A3/G//A//) cE | D2 E>G A2 G |]
% - - - - - - - - - - - - - - - - - - - - - - - - -

%%sep 1 1 500
%%sep 1 1 500

